**kern	**kern	**dynam
*part1	*part1	*part1
*staff2	*staff1	*
*I"Piano	*	*
*clefF4	*clefG2	*
*k[b-e-a-d-g-]	*k[b-e-a-d-g-]	*
=1	=1	=1
*^	*^	*
4r	2.FFF^^	4r	4ryy	.
(4E-X	.	2f	(4An 4c	.
4D-)	.	.	4B-)	.
(4E-	(4AAn	[4F [4c	4ryy	.
*	*	*v	*v	*
=	=	=	=
4D-)	4BB-)	4F] 4c]	.
*	*	*clefF4	*
(4GGG-X	2.ryy	((4En 4B-	.
4FFF)	.	4F)) 4An	.
4r	.	4r	.
*v	*v	*	*
*	*clefG2	*
=	=	=
1r	2r	.
.	4r	.
!	!LO:TX:a:i:t=melodia ben marcato	!
.	(4b--^^	pp
=	=	=
*	*^	*
4r	4a-^^	4r	.
((4C 4B--	4g-^^	(4e-X	.
4D-)) 4A-	4f^^)	4f)	.
4r	(4dd-^^	4r	.
=	=	=	=
4r	4cc^^	4r	.
((4E- 4G-	4b-^^	(4c	.
!	!LO:TX:b:i:t=cresc.	!	!
4F)) 4A-	4a-^^)	4d-)	.
4r	(4ff^^	4r	.
=	=	=	=
4r	4ee-^^	4r	.
4G- 4B-	4dd-^^	4e-	.
4r	4cc^^	4r	.
[4E- [4G-	4b-^^)	4c	.
*	*v	*v	*
=	=	=
4E-] 4G-]	(4.c 4.cc	f <
4r	.	.
.	8d- 8dd-	.
2r	4e- 4ee-	.
.	4f 4ff	.
=	=	=
*-	*-	*-
!!!system-decoration: {(s1,s2)}
